Obsidian/actions/24s/labplot-axis-horizontal.svg

<svg height="24" viewBox="0 0 24 24" width="24" xmlns="http://www.w3.org/2000/svg"><path d="m1 0v14h-1v1h1v1h1v-1h14v-1h-2v-2h-1v2h-3v-2h-1v2h-3v-2h-1v2h-3v-14z" fill="#bebebe" transform="translate(4 4)"/></svg>

<svg xmlns="http://www.w3.org/2000/svg" width="24" height="24" viewBox="0 0 24 24">
 <defs>
  <style id="current-color-scheme" type="text/css">
   .ColorScheme-Text { color:#bebebe; } .ColorScheme-Highlight { color:#4285f4; }
  </style>
 </defs>
 <path style="fill:currentColor" class="ColorScheme-Text" d="M 1 0 L 1 14 L 0 14 L 0 15 L 1 15 L 1 16 L 2 16 L 2 15 L 16 15 L 16 14 L 14 14 L 14 12 L 13 12 L 13 14 L 10 14 L 10 12 L 9 12 L 9 14 L 6 14 L 6 12 L 5 12 L 5 14 L 2 14 L 2 0 L 1 0 z" transform="translate(4 4)"/>
</svg>
